app/images/dist/discord-icon.svg

<svg width="40" height="32" viewBox="0 0 40 32" fill="none" xmlns="http://www.w3.org/2000/svg">
<path d="M15.4023 0.746094L14.3281 0.875C14.3281 0.875 9.51025 1.40137 5.99219 4.22656H5.94922L5.90625 4.26953C5.1167 4.99463 4.77295 5.88623 4.23047 7.19141C3.68799 8.49658 3.10791 10.1616 2.59766 12.0039C1.57715 15.6938 0.75 20.1626 0.75 24.25V24.5938L0.921875 24.9375C2.19482 27.1719 4.45606 28.5952 6.55078 29.5781C8.64551 30.561 10.4556 31.082 11.707 31.125L12.5234 31.168L12.9531 30.4375L14.457 27.7734C16.0522 28.1333 17.8892 28.375 20 28.375C22.1108 28.375 23.9478 28.1333 25.543 27.7734L27.0469 30.4375L27.4766 31.168L28.293 31.125C29.5444 31.082 31.3545 30.561 33.4492 29.5781C35.5439 28.5952 37.8052 27.1719 39.0781 24.9375L39.25 24.5938V24.25C39.25 20.1626 38.4229 15.6938 37.4023 12.0039C36.8921 10.1616 36.312 8.49658 35.7695 7.19141C35.2271 5.88623 34.8833 4.99463 34.0938 4.26953L34.0508 4.22656H34.0078C30.4897 1.40137 25.6719 0.875 25.6719 0.875L24.5977 0.746094L24.2109 1.73438C24.2109 1.73438 23.8135 2.73877 23.5664 3.88281C22.0088 3.67334 20.7358 3.625 20 3.625C19.2642 3.625 17.9912 3.67334 16.4336 3.88281C16.1865 2.73877 15.7891 1.73438 15.7891 1.73438L15.4023 0.746094ZM13.5117 3.88281C13.5708 4.07617 13.6299 4.24268 13.6836 4.39844C11.9058 4.83887 10.0098 5.51025 8.26953 6.58984L9.73047 8.91016C13.2969 6.69727 18.4209 6.375 20 6.375C21.5791 6.375 26.7031 6.69727 30.2695 8.91016L31.7305 6.58984C29.9902 5.51025 28.0942 4.83887 26.3164 4.39844C26.3701 4.24268 26.4292 4.07617 26.4883 3.88281C27.772 4.14062 30.2212 4.73145 32.2461 6.33203C32.2354 6.3374 32.7617 7.13232 33.2344 8.26562C33.7178 9.43115 34.2549 10.9834 34.7383 12.7344C35.6675 16.0913 36.3979 20.1787 36.457 23.7773C35.5923 25.0986 33.9863 26.291 32.2891 27.0859C30.8066 27.7788 29.6357 28.0312 28.9375 28.1602L28.25 27C28.6582 26.8496 29.061 26.6831 29.4102 26.5273C31.5264 25.5981 32.6758 24.5938 32.6758 24.5938L30.8711 22.5312C30.8711 22.5312 30.0977 23.2402 28.293 24.0352C26.4883 24.8301 23.7329 25.625 20 25.625C16.2671 25.625 13.5117 24.8301 11.707 24.0352C9.90234 23.2402 9.12891 22.5312 9.12891 22.5312L7.32422 24.5938C7.32422 24.5938 8.47363 25.5981 10.5898 26.5273C10.939 26.6831 11.3418 26.8496 11.75 27L11.0625 28.1602C10.3643 28.0312 9.19336 27.7788 7.71094 27.0859C6.01367 26.291 4.40771 25.0986 3.54297 23.7773C3.60205 20.1787 4.33252 16.0913 5.26172 12.7344C5.74512 10.9834 6.28223 9.43115 6.76562 8.26562C7.23828 7.13232 7.76465 6.3374 7.75391 6.33203C9.77881 4.73145 12.228 4.14062 13.5117 3.88281ZM15.1875 13.25C14.124 13.25 13.1841 13.8569 12.6094 14.625C12.0347 15.3931 11.75 16.3384 11.75 17.375C11.75 18.4116 12.0347 19.3569 12.6094 20.125C13.1841 20.8931 14.124 21.5 15.1875 21.5C16.251 21.5 17.1909 20.8931 17.7656 20.125C18.3403 19.3569 18.625 18.4116 18.625 17.375C18.625 16.3384 18.3403 15.3931 17.7656 14.625C17.1909 13.8569 16.251 13.25 15.1875 13.25ZM24.8125 13.25C23.749 13.25 22.8091 13.8569 22.2344 14.625C21.6597 15.3931 21.375 16.3384 21.375 17.375C21.375 18.4116 21.6597 19.3569 22.2344 20.125C22.8091 20.8931 23.749 21.5 24.8125 21.5C25.876 21.5 26.8159 20.8931 27.3906 20.125C27.9653 19.3569 28.25 18.4116 28.25 17.375C28.25 16.3384 27.9653 15.3931 27.3906 14.625C26.8159 13.8569 25.876 13.25 24.8125 13.25ZM15.1875 16C15.2627 16 15.3594 16.0269 15.5312 16.2578C15.7031 16.4888 15.875 16.8916 15.875 17.375C15.875 17.8584 15.7031 18.2612 15.5312 18.4922C15.3594 18.7231 15.2627 18.75 15.1875 18.75C15.1123 18.75 15.0156 18.7231 14.8438 18.4922C14.6719 18.2612 14.5 17.8584 14.5 17.375C14.5 16.8916 14.6719 16.4888 14.8438 16.2578C15.0156 16.0269 15.1123 16 15.1875 16ZM24.8125 16C24.8877 16 24.9844 16.0269 25.1562 16.2578C25.3281 16.4888 25.5 16.8916 25.5 17.375C25.5 17.8584 25.3281 18.2612 25.1562 18.4922C24.9844 18.7231 24.8877 18.75 24.8125 18.75C24.7373 18.75 24.6406 18.7231 24.4688 18.4922C24.2969 18.2612 24.125 17.8584 24.125 17.375C24.125 16.8916 24.2969 16.4888 24.4688 16.2578C24.6406 16.0269 24.7373 16 24.8125 16Z" fill="white"/>
</svg>

<svg width="40" height="32" fill="none" xmlns="http://www.w3.org/2000/svg"><path d="m15.402.746-1.074.129s-4.818.526-8.336 3.352H5.95l-.043.043c-.79.725-1.133 1.616-1.676 2.921a42.196 42.196 0 0 0-1.632 4.813C1.578 15.694.75 20.163.75 24.25v.344l.172.343c1.273 2.235 3.534 3.658 5.629 4.641 2.095.983 3.905 1.504 5.156 1.547l.816.043.43-.73 1.504-2.665a25.04 25.04 0 0 0 5.543.602c2.11 0 3.948-.242 5.543-.602l1.504 2.665.43.73.816-.043c1.251-.043 3.062-.564 5.156-1.547 2.095-.983 4.356-2.406 5.63-4.64l.171-.344v-.344c0-4.087-.827-8.556-1.848-12.246A42.182 42.182 0 0 0 35.77 7.19c-.542-1.305-.886-2.196-1.675-2.921l-.043-.043h-.043C30.49 1.4 25.672.875 25.672.875L24.598.746l-.387.988s-.397 1.005-.645 2.149A27.632 27.632 0 0 0 20 3.625c-.736 0-2.009.048-3.566.258-.248-1.144-.645-2.149-.645-2.149l-.387-.988Zm-1.89 3.137c.059.193.118.36.172.515-1.778.44-3.674 1.112-5.414 2.192l1.46 2.32C13.297 6.697 18.42 6.375 20 6.375s6.703.322 10.27 2.535l1.46-2.32c-1.74-1.08-3.636-1.751-5.414-2.192.054-.155.113-.322.172-.515 1.284.258 3.733.848 5.758 2.449-.01.005.516.8.988 1.934.484 1.165 1.02 2.717 1.504 4.468.93 3.357 1.66 7.445 1.719 11.043-.865 1.322-2.47 2.514-4.168 3.309a13.403 13.403 0 0 1-3.352 1.074L28.25 27c.408-.15.811-.317 1.16-.473 2.116-.929 3.266-1.933 3.266-1.933L30.87 22.53s-.773.71-2.578 1.504c-1.805.795-4.56 1.59-8.293 1.59-3.733 0-6.488-.795-8.293-1.59-1.805-.795-2.578-1.504-2.578-1.504l-1.805 2.063s1.15 1.004 3.266 1.933c.349.156.752.323 1.16.473l-.688 1.16a13.402 13.402 0 0 1-3.351-1.074c-1.697-.795-3.303-1.987-4.168-3.309.06-3.598.79-7.686 1.719-11.043.483-1.75 1.02-3.303 1.504-4.468.472-1.134.999-1.929.988-1.934 2.025-1.6 4.474-2.191 5.758-2.45Zm1.675 9.367c-1.063 0-2.003.607-2.578 1.375-.574.768-.859 1.713-.859 2.75s.285 1.982.86 2.75c.574.768 1.514 1.375 2.578 1.375 1.063 0 2.003-.607 2.578-1.375.574-.768.859-1.713.859-2.75s-.285-1.982-.86-2.75c-.574-.768-1.514-1.375-2.578-1.375Zm9.626 0c-1.064 0-2.004.607-2.579 1.375-.574.768-.859 1.713-.859 2.75s.285 1.982.86 2.75c.574.768 1.514 1.375 2.578 1.375 1.063 0 2.003-.607 2.578-1.375.574-.768.859-1.713.859-2.75s-.285-1.982-.86-2.75c-.574-.768-1.514-1.375-2.578-1.375ZM15.188 16c.075 0 .171.027.343.258.172.23.344.634.344 1.117s-.172.886-.344 1.117c-.172.231-.268.258-.344.258-.075 0-.171-.027-.343-.258a1.927 1.927 0 0 1-.344-1.117c0-.483.172-.886.344-1.117.172-.231.268-.258.344-.258Zm9.624 0c.076 0 .172.027.344.258.172.23.344.634.344 1.117s-.172.886-.344 1.117c-.172.231-.268.258-.343.258-.076 0-.172-.027-.344-.258a1.927 1.927 0 0 1-.344-1.117c0-.483.172-.886.344-1.117.172-.231.268-.258.343-.258Z" fill="#fff"/></svg>
